static/assets/images/icons/medal.svg

<svg width="256" height="256" viewBox="0 0 256 256" fill="none" xmlns="http://www.w3.org/2000/svg">
<path d="M212 37C212 31.4772 207.523 27 202 27H54C48.4772 27 44 31.4772 44 37V50.1616C44 51.9147 44.9182 53.5398 46.4199 54.4444L105.005 89.7375C86.4907 95.8386 71.158 109.037 62.3767 126.431C53.5954 143.825 52.0841 163.991 58.175 182.498C61.1884 191.666 65.9809 200.151 72.2784 207.466C78.5759 214.781 86.2547 220.784 94.8757 225.131C103.497 229.477 112.891 232.083 122.52 232.798C132.15 233.513 141.826 232.324 150.995 229.299C165.7 224.468 178.504 215.122 187.581 202.592C196.658 190.061 201.545 174.987 201.545 159.518C201.545 144.049 196.658 128.975 187.581 116.444C178.504 103.914 165.7 94.5677 150.995 89.7375L209.58 54.4444C211.082 53.5398 212 51.9147 212 50.1616V37ZM156.214 192.301C157.216 196.577 152.614 199.975 148.822 197.759L133.047 188.536C129.929 186.713 126.071 186.713 122.953 188.536L107.178 197.759C103.386 199.975 98.7838 196.577 99.786 192.301L103.936 174.593C104.787 170.965 103.549 167.166 100.726 164.734L87.0432 152.951C83.6862 150.06 85.4693 144.554 89.8837 144.18L107.939 142.65C111.626 142.338 114.838 140.015 116.291 136.613L123.402 119.962C125.131 115.913 130.869 115.913 132.598 119.962L139.709 136.614C141.162 140.016 144.374 142.338 148.059 142.651L166.051 144.18C170.46 144.555 172.245 150.051 168.897 152.945L155.258 164.734C152.443 167.166 151.212 170.96 152.061 174.581L156.214 192.301Z" fill="black"/>
</svg>

<svg xmlns="http://www.w3.org/2000/svg" fill="none" viewBox="0 0 256 256"><path fill="#000" d="M212 37c0-5.523-4.477-10-10-10H54c-5.523 0-10 4.477-10 10v13.162a5 5 0 0 0 2.42 4.282l58.585 35.293a73.53 73.53 0 0 0-42.628 36.694 73.45 73.45 0 0 0-4.202 56.067 73.4 73.4 0 0 0 14.103 24.968 73.46 73.46 0 0 0 50.242 25.332 73.5 73.5 0 0 0 28.475-3.499 73.5 73.5 0 0 0 36.586-26.707 73.43 73.43 0 0 0 13.964-43.074 73.43 73.43 0 0 0-13.964-43.074 73.5 73.5 0 0 0-36.586-26.707l58.585-35.293a5 5 0 0 0 2.42-4.282zm-55.786 155.301c1.002 4.276-3.6 7.674-7.392 5.458l-15.775-9.223a10 10 0 0 0-10.094 0l-15.775 9.223c-3.792 2.216-8.394-1.182-7.392-5.458l4.15-17.708a10 10 0 0 0-3.21-9.859l-13.683-11.783c-3.357-2.891-1.574-8.397 2.84-8.771l18.056-1.53a10 10 0 0 0 8.352-6.037l7.111-16.651c1.729-4.049 7.467-4.049 9.196 0l7.111 16.652a10 10 0 0 0 8.35 6.037l17.992 1.529c4.409.375 6.194 5.871 2.846 8.765l-13.639 11.789a10 10 0 0 0-3.197 9.847z"/></svg>
